src/images/search_icon.svg

<svg aria-hidden="true" style="position:absolute;width:0;height:0;overflow:hidden" xmlns="http://www.w3.org/2000/svg">
<defs>
<symbol id="search" viewBox="0 0 12 12">
<path d="M1.50899 1.50905C2.48211 0.535922 3.77593 0 5.15211 0C6.52829 0 7.82211 0.535922 8.79521 1.50905C9.76831 2.48215 10.3043 3.77597 10.3043 5.15213C10.3043 6.41032 9.85604 7.59949 9.03554 8.53786L11.8969 11.3992C12.0343 11.5366 12.0343 11.7595 11.8969 11.8969C11.8281 11.9656 11.7381 12 11.648 12C11.558 12 11.4679 11.9656 11.3992 11.8969L8.53785 9.03558C7.59948 9.85606 6.41031 10.3043 5.15211 10.3043C3.77591 10.3043 2.48213 9.76838 1.50901 8.79525C0.535907 7.82215 -1.43051e-05 6.52833 -1.43051e-05 5.15215C-1.43051e-05 3.77597 0.535884 2.48215 1.50899 1.50905ZM2.0067 8.29755C3.7411 10.0319 6.5631 10.0319 8.29749 8.29755C10.0319 6.56318 10.0319 3.74114 8.29749 2.00677C7.43021 1.13948 6.29134 0.705984 5.15209 0.705984C4.01312 0.705984 2.87377 1.1397 2.00668 2.00677C0.272352 3.74112 0.272352 6.56316 2.0067 8.29755Z" />
</symbol>
</defs>
</svg>

<svg width="12" height="12"  xmlns="http://www.w3.org/2000/svg"><path d="M1.509 1.509A5.118 5.118 0 0 1 5.152 0c1.376 0 2.67.536 3.643 1.509a5.118 5.118 0 0 1 1.51 3.643 5.114 5.114 0 0 1-1.27 3.386l2.862 2.861a.352.352 0 0 1-.498.498L8.538 9.036a5.114 5.114 0 0 1-3.386 1.268A5.118 5.118 0 0 1 1.51 8.795 5.118 5.118 0 0 1 0 5.152c0-1.376.536-2.67 1.509-3.643Zm.498 6.789a4.453 4.453 0 0 0 6.29 0 4.453 4.453 0 0 0 0-6.291A4.434 4.434 0 0 0 5.152.706a4.435 4.435 0 0 0-3.145 1.3 4.453 4.453 0 0 0 0 6.292Z" /></svg>
